svg/alphanum/3-square.svg

<svg width="448" height="512" viewBox="0 0 448 512" version="1.1" xmlns="http://www.w3.org/2000/svg"><path fill="currentColor" d="M400,480l-352,0c-26.51,0 -48,-21.49 -48,-48l0,-352c0,-26.51 21.49,-48 48,-48l352,0c26.51,0 48,21.49 48,48l0,352c0,26.51 -21.49,48 -48,48Zm-277.309,-175.028c-9.141,0.001 -12.582,8.283 -9.696,18.006c12.771,42.785 53.473,62.022 111.005,62.022c63.45,0 112,-25.539 112,-76.027c0,-23.755 -11.041,-40.61 -27.353,-52.474c16.312,-11.364 27.353,-27.717 27.353,-51.472c0,-50.488 -48.55,-76.027 -112,-76.027c-57.532,0 -98.234,19.237 -111.005,62.022c-2.886,9.723 0.555,18.006 9.696,18.006l34.474,0c4.33,0 6.07,0 9.641,-4.495c13.675,-23.014 26.687,-27.516 57.194,-27.516c10.473,0 51.692,1.336 51.692,28.01c0,8.581 -3.475,14.504 -9.348,18.973l-58.344,0c-8.837,0 -16,7.163 -16,16l0,32c0,8.837 7.163,16 16,16l57.404,0c6.441,5.124 10.288,11.944 10.288,20.973c0,26.674 -41.219,28.01 -51.692,28.01c-30.507,0 -43.519,-4.502 -57.194,-27.516c-3.571,-4.495 -5.311,-4.495 -9.641,-4.495l-34.474,0Z"></path></svg>

<svg width="448" height="512" viewBox="0 0 448 512" fill="none" xmlns="http://www.w3.org/2000/svg">
<path fill-rule="evenodd" clip-rule="evenodd" d="M48 32C21.4903 32 0 53.4903 0 80V432C0 458.51 21.4903 480 48 480H400C426.51 480 448 458.51 448 432V80C448 53.4903 426.51 32 400 32H48ZM275.692 205.027C275.692 213.608 272.217 219.532 266.344 224H208C199.163 224 192 231.163 192 240V272C192 280.837 199.163 288 208 288H265.404C271.845 293.124 275.692 299.944 275.692 308.973C275.692 335.647 234.473 336.983 224 336.983C193.493 336.983 180.481 332.481 166.806 309.467C163.235 304.972 161.495 304.972 157.165 304.972H122.691C113.55 304.972 110.109 313.255 112.995 322.978C125.766 365.763 166.468 385 224 385C287.45 385 336 359.461 336 308.973C336 285.218 324.959 268.363 308.647 256.499C324.959 245.135 336 228.782 336 205.027C336 154.539 287.45 129 224 129C166.468 129 125.766 148.237 112.995 191.022C110.109 200.745 113.55 209.028 122.691 209.028H157.165C161.495 209.028 163.235 209.028 166.806 204.533C180.481 181.519 193.493 177.017 224 177.017C234.473 177.017 275.692 178.353 275.692 205.027Z" fill="black"/>
</svg>
